X:802
T:Sotare Kjällman
C:efter [[!Lennart Thörn]]
R:Schottis
Z:Patrik Månsson, 2008-12-03
O:Röke, Skåne
N: Noten innehåller anteckningen "Berättad av min fader. Notskrift 27-1-85 L.T."
M:C
L:1/8
K:G

V:1
dB |: G2 GA BABc | d2 c2 c2 cB | A2 AB cBcd | e2 d2 d2 dB |
G2 GA BABc | B2 A2 A2 AF | DEFG AcBA |[1 G2 G2 G2 dB :|
[2 G2 G2 G2 Bc]|: dd db g2 Bd | dccd c2 AB | cc ca f2 Ac |
cBBc B2 Bc | dd db g2 Bd | dccd c2 AF | DEFG Ac BA |
[1 G2 B2 G2 Bc :|[2 G2 B2 G2 z2 ]|

V:2
GE |: D2 C2 D2 GA | B2 A2 A2 AG | F2 F2 D2 AB | c2 B2 B2 D2 |
B,2 D2 GF GA | G2 E2 E2 C2 | D2 c2 cAFD |[1 B,2 B,2 B,2 GE :|
[2 B,2 B,2 B,2 z2 ]|: BBBd B2 GB | BAAB A2 EG | AAAc c2 DF |
AGGA G2 GA | BBBd B2 GB | BAAB A2 cB | F2 D2 FE DC |
|[1 B,2 B,2 B,2 GA :|[2 B,2 B,2 B,2 z2 ]|

(:musicend:)

Ingår i kategorin [[!andrastämma]].
(:music:)
